X: 13718
T: Forbes Leith
R: reel
M: 4/4
K: Gminor
||B,A,B,D FBdc|BABG FDB,D|C=B,CE Bced|cBAG FEDC|
B,A,B,D FBdc|BABG FDB,D|EGcd ecgf|f=e_ec Agec||
B2AB dBAB|fBgB fBdB|F2=EF AFEF|cFeF dFcF|
B2AB dBAB|fBgB fBdB|EGce DFBd|dcBA B4||

